X: 24967
T: Maid Of Feakle, The
R: reel
M: 4/4
K: Gmajor
|d2BG ABGE|DGAB c3e|d2BG ABGE|DGBG A3 B|
d2 BG ABGE|DGAB c2BA|GABd egge|dBAB G3A||
BddB ceec|BddB ABGA|BddB cded|dBGB A3c|
BddB ceec|BddB ABGA|Bd d2 edBd|eaaf g4||

